static/img/kroki/c3ffe9d0f371956de9ff4b1d3de9d30f.svg

<?xml version="1.0" encoding="us-ascii" standalone="no"?><svg xmlns="http://www.w3.org/2000/svg" xmlns:xlink="http://www.w3.org/1999/xlink" contentStyleType="text/css" height="352px" preserveAspectRatio="none" style="width:441px;height:352px;" version="1.1" viewBox="0 0 441 352" width="441px" zoomAndPan="magnify"><defs/><g><!--class aws_ec2_elastic_ip--><g id="elem_aws_ec2_elastic_ip"><rect codeLine="22" fill="#3D176E" height="39.7891" id="aws_ec2_elastic_ip" rx="2.5" ry="2.5" style="stroke:#000D19;stroke-width:0.5;" width="199" x="7" y="306.37"/><ellipse cx="22" cy="326.2645" fill="#ADD1B2" rx="11" ry="11" style="stroke:#181818;stroke-width:1.0;"/><path d="M24.9688,331.9052 Q24.3906,332.202 23.75,332.3427 Q23.1094,332.4989 22.4063,332.4989 Q19.9063,332.4989 18.5781,330.8583 Q17.2656,329.202 17.2656,326.077 Q17.2656,322.952 18.5781,321.2958 Q19.9063,319.6395 22.4063,319.6395 Q23.1094,319.6395 23.75,319.7958 Q24.4063,319.952 24.9688,320.2489 L24.9688,322.9677 Q24.3438,322.3895 23.75,322.1239 Q23.1563,321.8427 22.5313,321.8427 Q21.1875,321.8427 20.5,322.9208 Q19.8125,323.9833 19.8125,326.077 Q19.8125,328.1708 20.5,329.2489 Q21.1875,330.3114 22.5313,330.3114 Q23.1563,330.3114 23.75,330.0458 Q24.3438,329.7645 24.9688,329.1864 L24.9688,331.9052 Z " fill="#000000"/><text fill="#D9B8FF" font-family="Helvetica" font-size="17" lengthAdjust="spacing" textLength="157" x="41" y="332.1498">aws_ec2_elastic_ip</text></g><!--class aws_ec2_instance--><g id="elem_aws_ec2_instance"><rect codeLine="24" fill="#3D176E" height="39.7891" id="aws_ec2_instance" rx="2.5" ry="2.5" style="stroke:#000D19;stroke-width:0.5;" width="192" x="70.5" y="106.79"/><ellipse cx="85.5" cy="126.6845" fill="#ADD1B2" rx="11" ry="11" style="stroke:#181818;stroke-width:1.0;"/><path d="M88.4688,132.3252 Q87.8906,132.622 87.25,132.7627 Q86.6094,132.9189 85.9063,132.9189 Q83.4063,132.9189 82.0781,131.2783 Q80.7656,129.622 80.7656,126.497 Q80.7656,123.372 82.0781,121.7158 Q83.4063,120.0595 85.9063,120.0595 Q86.6094,120.0595 87.25,120.2158 Q87.9063,120.372 88.4688,120.6689 L88.4688,123.3877 Q87.8438,122.8095 87.25,122.5439 Q86.6563,122.2627 86.0313,122.2627 Q84.6875,122.2627 84,123.3408 Q83.3125,124.4033 83.3125,126.497 Q83.3125,128.5908 84,129.6689 Q84.6875,130.7314 86.0313,130.7314 Q86.6563,130.7314 87.25,130.4658 Q87.8438,130.1845 88.4688,129.6064 L88.4688,132.3252 Z " fill="#000000"/><text fill="#D9B8FF" font-family="Helvetica" font-size="17" lengthAdjust="spacing" textLength="150" x="104.5" y="132.5698">aws_ec2_instance</text></g><!--class aws_ec2_network_interface--><g id="elem_aws_ec2_network_interface"><rect codeLine="26" fill="#3D176E" height="39.7891" id="aws_ec2_network_interface" rx="2.5" ry="2.5" style="stroke:#000D19;stroke-width:0.5;" width="275" x="159" y="206.58"/><ellipse cx="174" cy="226.4745" fill="#ADD1B2" rx="11" ry="11" style="stroke:#181818;stroke-width:1.0;"/><path d="M176.9688,232.1152 Q176.3906,232.412 175.75,232.5527 Q175.1094,232.7089 174.4063,232.7089 Q171.9063,232.7089 170.5781,231.0683 Q169.2656,229.412 169.2656,226.287 Q169.2656,223.162 170.5781,221.5058 Q171.9063,219.8495 174.4063,219.8495 Q175.1094,219.8495 175.75,220.0058 Q176.4063,220.162 176.9688,220.4589 L176.9688,223.1777 Q176.3438,222.5995 175.75,222.3339 Q175.1563,222.0527 174.5313,222.0527 Q173.1875,222.0527 172.5,223.1308 Q171.8125,224.1933 171.8125,226.287 Q171.8125,228.3808 172.5,229.4589 Q173.1875,230.5214 174.5313,230.5214 Q175.1563,230.5214 175.75,230.2558 Q176.3438,229.9745 176.9688,229.3964 L176.9688,232.1152 Z " fill="#000000"/><text fill="#D9B8FF" font-family="Helvetica" font-size="17" lengthAdjust="spacing" textLength="233" x="193" y="232.3598">aws_ec2_network_interface</text></g><!--class aws_region--><g id="elem_aws_region"><rect codeLine="28" fill="#3D176E" height="39.7891" id="aws_region" rx="2.5" ry="2.5" style="stroke:#000D19;stroke-width:0.5;" width="137" x="98" y="7"/><ellipse cx="113" cy="26.8945" fill="#ADD1B2" rx="11" ry="11" style="stroke:#181818;stroke-width:1.0;"/><path d="M115.9688,32.5352 Q115.3906,32.832 114.75,32.9727 Q114.1094,33.1289 113.4063,33.1289 Q110.9063,33.1289 109.5781,31.4883 Q108.2656,29.832 108.2656,26.707 Q108.2656,23.582 109.5781,21.9258 Q110.9063,20.2695 113.4063,20.2695 Q114.1094,20.2695 114.75,20.4258 Q115.4063,20.582 115.9688,20.8789 L115.9688,23.5977 Q115.3438,23.0195 114.75,22.7539 Q114.1563,22.4727 113.5313,22.4727 Q112.1875,22.4727 111.5,23.5508 Q110.8125,24.6133 110.8125,26.707 Q110.8125,28.8008 111.5,29.8789 Q112.1875,30.9414 113.5313,30.9414 Q114.1563,30.9414 114.75,30.6758 Q115.3438,30.3945 115.9688,29.8164 L115.9688,32.5352 Z " fill="#000000"/><text fill="#D9B8FF" font-family="Helvetica" font-size="17" lengthAdjust="spacing" textLength="95" x="132" y="32.7798">aws_region</text></g><!--link aws_ec2_instance to aws_ec2_elastic_ip--><g id="link_aws_ec2_instance_aws_ec2_elastic_ip"><path codeLine="30" d="M160.33,146.78 C155.2,162.74 147.76,186.11 141.5,206.58 C131.61,238.91 120.65,276.35 113.68,300.39 " fill="none" id="aws_ec2_instance-to-aws_ec2_elastic_ip" style="stroke:#1A83AF;stroke-width:2.0;"/><polygon fill="#1A83AF" points="112.08,304.91,118.4193,297.3726,113.4668,300.1062,110.7332,295.1537,112.08,304.91" style="stroke:#1A83AF;stroke-width:2.0;"/></g><!--link aws_ec2_instance to aws_ec2_network_interface--><g id="link_aws_ec2_instance_aws_ec2_network_interface"><path codeLine="31" d="M192.18,147.01 C213.46,163.01 243.74,185.79 266.2,202.69 " fill="none" id="aws_ec2_instance-to-aws_ec2_network_interface" style="stroke:#1A83AF;stroke-width:2.0;"/><polygon fill="#1A83AF" points="269.87,206.2,265.0896,197.5891,265.8769,203.1909,260.275,203.9781,269.87,206.2" style="stroke:#1A83AF;stroke-width:2.0;"/></g><!--link aws_ec2_network_interface to aws_ec2_elastic_ip--><g id="link_aws_ec2_network_interface_aws_ec2_elastic_ip"><path codeLine="32" d="M258.96,246.8 C227.34,263.07 182.12,286.34 149.14,303.32 " fill="none" id="aws_ec2_network_interface-to-aws_ec2_elastic_ip" style="stroke:#1A83AF;stroke-width:2.0;"/><polygon fill="#1A83AF" points="144.96,305.99,154.7914,305.4046,149.4003,303.6913,151.1136,298.3002,144.96,305.99" style="stroke:#1A83AF;stroke-width:2.0;"/></g><!--link aws_region to aws_ec2_elastic_ip--><g id="link_aws_region_aws_ec2_elastic_ip"><path codeLine="33" d="M119.64,47.18 C94.86,60.09 66.69,79.72 52.5,106.79 C18.34,171.97 63.67,259.5 90.02,301.21 " fill="none" id="aws_region-to-aws_ec2_elastic_ip" style="stroke:#1A83AF;stroke-width:2.0;"/><polygon fill="#1A83AF" points="93.13,305.07,91.6429,295.3341,90.4327,300.8599,84.9068,299.6497,93.13,305.07" style="stroke:#1A83AF;stroke-width:2.0;"/></g><!--link aws_region to aws_ec2_instance--><g id="link_aws_region_aws_ec2_instance"><path codeLine="34" d="M166.5,47.22 C166.5,62.49 166.5,83.92 166.5,100.53 " fill="none" id="aws_region-to-aws_ec2_instance" style="stroke:#1A83AF;stroke-width:2.0;"/><polygon fill="#1A83AF" points="166.5,105.41,170.5,96.41,166.5,100.41,162.5,96.41,166.5,105.41" style="stroke:#1A83AF;stroke-width:2.0;"/></g><!--link aws_region to aws_ec2_network_interface--><g id="link_aws_region_aws_ec2_network_interface"><path codeLine="35" d="M210.57,47.18 C235.23,60.34 264.22,80.22 280.5,106.79 C298,135.35 299.81,174.96 298.75,200.41 " fill="none" id="aws_region-to-aws_ec2_network_interface" style="stroke:#1A83AF;stroke-width:2.0;"/><polygon fill="#1A83AF" points="298.44,205.24,302.8983,196.458,298.6975,200.2466,294.9089,196.0459,298.44,205.24" style="stroke:#1A83AF;stroke-width:2.0;"/></g><!--SRC=[fP1DQy9048Rl_ee5pu9HMlLIY8Aq5ocrjr9apCxgacGtp8uDjlI_DtwLRTQeq6FcVJBlCxlM4WNc1Mz5ZlaIoRLSgaq11Bc8YMmviPabqLOAL7zG3wVMy5LW1ZcAHym-a7K2TU9rhPFKe7EYvqLZID8LsOsHX_LCO5mLeM6FccJWNCnCUhbXz6JaQ3bKgaxMbxRxCXhSOu1PaaX7fDljocXKHwvMNRpxbvZhJnIH_sWponXe1XLxwgBbZl0aWqDFUQFZCqYfpKhSURENWnCPf3_p-HgaBNUqWipvDOwHqFAsm4bm5Ow6KWtEmazDSB9xEG6bMs3IMs3rLMalT26-Mj-rK1l7O18y4ndaqb9Q8LMZWe0XN6bhziDWM-Uj7SN3VZnzxpoS4RdnXy2WrUnsI-FH-B_eIVeg65Z-0000]--></g></svg>

<svg xmlns="http://www.w3.org/2000/svg" width="441" height="352" preserveAspectRatio="none" style="width:441px;height:352px"><rect width="199" height="39.789" x="7" y="306.37" fill="#3D176E" rx="2.5" ry="2.5" style="stroke:#000d19;stroke-width:.5"/><circle cx="22" cy="326.264" r="11" fill="#ADD1B2" style="stroke:#181818;stroke-width:1"/><path d="M24.969 331.905q-.578.297-1.219.438-.64.156-1.344.156-2.5 0-3.828-1.64-1.312-1.657-1.312-4.782t1.312-4.781q1.328-1.656 3.828-1.656.703 0 1.344.156.656.156 1.219.453v2.719q-.625-.579-1.219-.844-.594-.281-1.219-.281-1.343 0-2.031 1.078-.688 1.062-.688 3.156 0 2.094.688 3.172.688 1.062 2.031 1.062.625 0 1.219-.265.594-.281 1.219-.86v2.72Z"/><text x="41" y="332.15" fill="#D9B8FF" font-family="Helvetica" font-size="17" textLength="157">aws_ec2_elastic_ip</text><rect width="192" height="39.789" x="70.5" y="106.79" fill="#3D176E" rx="2.5" ry="2.5" style="stroke:#000d19;stroke-width:.5"/><circle cx="85.5" cy="126.684" r="11" fill="#ADD1B2" style="stroke:#181818;stroke-width:1"/><path d="M88.469 132.325q-.578.297-1.219.438-.64.156-1.344.156-2.5 0-3.828-1.64-1.312-1.657-1.312-4.782t1.312-4.781q1.328-1.656 3.828-1.656.703 0 1.344.156.656.156 1.219.453v2.719q-.625-.579-1.219-.844-.594-.281-1.219-.281-1.344 0-2.031 1.078-.688 1.062-.688 3.156 0 2.094.688 3.172.688 1.062 2.031 1.062.625 0 1.219-.265.594-.281 1.219-.86v2.72Z"/><text x="104.5" y="132.57" fill="#D9B8FF" font-family="Helvetica" font-size="17" textLength="150">aws_ec2_instance</text><rect width="275" height="39.789" x="159" y="206.58" fill="#3D176E" rx="2.5" ry="2.5" style="stroke:#000d19;stroke-width:.5"/><circle cx="174" cy="226.475" r="11" fill="#ADD1B2" style="stroke:#181818;stroke-width:1"/><path d="M176.969 232.115q-.578.297-1.219.438-.64.156-1.344.156-2.5 0-3.828-1.64-1.312-1.657-1.312-4.782t1.312-4.781q1.328-1.656 3.828-1.656.703 0 1.344.156.656.156 1.219.453v2.719q-.625-.578-1.219-.844-.594-.281-1.219-.281-1.344 0-2.031 1.078-.688 1.062-.688 3.156 0 2.094.688 3.172.688 1.062 2.031 1.062.625 0 1.219-.265.594-.281 1.219-.86v2.72Z"/><text x="193" y="232.36" fill="#D9B8FF" font-family="Helvetica" font-size="17" textLength="233">aws_ec2_network_interface</text><rect width="137" height="39.789" x="98" y="7" fill="#3D176E" rx="2.5" ry="2.5" style="stroke:#000d19;stroke-width:.5"/><circle cx="113" cy="26.895" r="11" fill="#ADD1B2" style="stroke:#181818;stroke-width:1"/><path d="M115.969 32.535q-.578.297-1.219.438-.64.156-1.344.156-2.5 0-3.828-1.64-1.312-1.657-1.312-4.782t1.312-4.781q1.328-1.656 3.828-1.656.703 0 1.344.156.656.156 1.219.453v2.719q-.625-.578-1.219-.844-.594-.281-1.219-.281-1.344 0-2.031 1.078-.688 1.062-.688 3.156 0 2.094.688 3.172.688 1.062 2.031 1.062.625 0 1.219-.265.594-.281 1.219-.86v2.72Z"/><text x="132" y="32.78" fill="#D9B8FF" font-family="Helvetica" font-size="17" textLength="95">aws_region</text><path fill="none" d="M160.33 146.78c-5.13 15.96-12.57 39.33-18.83 59.8-9.89 32.33-20.85 69.77-27.82 93.81" style="stroke:#1a83af;stroke-width:2"/><path fill="#1A83AF" d="m112.08 304.91 6.34-7.537-4.953 2.733-2.734-4.952 1.347 9.756z" style="stroke:#1a83af;stroke-width:2"/><path fill="none" d="M192.18 147.01c21.28 16 51.56 38.78 74.02 55.68" style="stroke:#1a83af;stroke-width:2"/><path fill="#1A83AF" d="m269.87 206.2-4.78-8.61.787 5.6-5.602.788 9.595 2.222z" style="stroke:#1a83af;stroke-width:2"/><path fill="none" d="M258.96 246.8c-31.62 16.27-76.84 39.54-109.82 56.52" style="stroke:#1a83af;stroke-width:2"/><path fill="#1A83AF" d="m144.96 305.99 9.831-.585-5.39-1.714 1.713-5.39-6.154 7.689z" style="stroke:#1a83af;stroke-width:2"/><path fill="none" d="M119.64 47.18C94.86 60.09 66.69 79.72 52.5 106.79 18.34 171.97 63.67 259.5 90.02 301.21" style="stroke:#1a83af;stroke-width:2"/><path fill="#1A83AF" d="m93.13 305.07-1.487-9.736-1.21 5.526-5.526-1.21 8.223 5.42z" style="stroke:#1a83af;stroke-width:2"/><path fill="none" d="M166.5 47.22v53.31" style="stroke:#1a83af;stroke-width:2"/><path fill="#1A83AF" d="m166.5 105.41 4-9-4 4-4-4 4 9z" style="stroke:#1a83af;stroke-width:2"/><path fill="none" d="M210.57 47.18c24.66 13.16 53.65 33.04 69.93 59.61 17.5 28.56 19.31 68.17 18.25 93.62" style="stroke:#1a83af;stroke-width:2"/><path fill="#1A83AF" d="m298.44 205.24 4.458-8.782-4.2 3.789-3.79-4.201 3.532 9.194z" style="stroke:#1a83af;stroke-width:2"/></svg>
